svgs/sharp-light/air-conditioner.svg

<svg xmlns="http://www.w3.org/2000/svg" viewBox="0 0 576 512"><!--! Font Awesome Pro 6.6.0 by @fontawesome - https://fontawesome.com License - https://fontawesome.com/license (Commercial License) Copyright 2024 Fonticons, Inc. --><path d="M32 32l0 192 512 0 0-192L32 32zM0 0L32 0 544 0l32 0 0 32 0 192 0 32-32 0L32 256 0 256l0-32L0 32 0 0zM112 128l352 0 16 0 0 32-16 0-352 0-16 0 0-32 16 0zM256 288l0 144c0 44.2-35.8 80-80 80s-80-35.8-80-80c0-29.6 16.1-55.5 40-69.3l16 27.7c-14.4 8.3-24 23.8-24 41.6c0 26.5 21.5 48 48 48s48-21.5 48-48l0-144 32 0zm64 112l0-112 32 0 0 112c0 26.5 21.5 48 48 48s48-21.5 48-48c0-17.7-9.6-33.3-24-41.6l16-27.7c23.9 13.8 40 39.7 40 69.3c0 44.2-35.8 80-80 80s-80-35.8-80-80z"/></svg>

<svg xmlns="http://www.w3.org/2000/svg" viewBox="0 0 576 512"><!--! Font Awesome Pro 6.5.2 by @fontawesome - https://fontawesome.com License - https://fontawesome.com/license (Commercial License) Copyright 2024 Fonticons, Inc. --><path d="M32 32V224H544V32H32zM0 0H32 544h32V32 224v32H544 32 0V224 32 0zM112 128H464h16v32H464 112 96V128h16zM256 288V432c0 44.2-35.8 80-80 80s-80-35.8-80-80c0-29.6 16.1-55.5 40-69.3l16 27.7c-14.4 8.3-24 23.8-24 41.6c0 26.5 21.5 48 48 48s48-21.5 48-48V288h32zm64 112V288h32V400c0 26.5 21.5 48 48 48s48-21.5 48-48c0-17.7-9.6-33.3-24-41.6l16-27.7c23.9 13.8 40 39.7 40 69.3c0 44.2-35.8 80-80 80s-80-35.8-80-80z"/></svg>
